main/svg/wheatTexture7.svg

<svg xmlns="http://www.w3.org/2000/svg" width="32" height="32"><path d="m2.004 25 3.992 4v3l-3.992-4.004ZM12 25l4 4v3l-4-4.004Zm9.996 0 4.008 4v3l-4.008-4.004Zm0 0" style="stroke:none;fill-rule:nonzero;fill:#000;fill-opacity:1"/><path d="m29.996 21.996-3.992 4.008V29L30 25Zm-9.996 0-4 4.008V29l4-4Zm-10 0-4.004 4.008V29L10 25ZM2.004 19l3.992 3.996V26l-3.992-4ZM12 19l4 3.996V26l-4-4Zm9.996 0 4.008 3.996V26l-4.008-4Zm0 0" style="stroke:none;fill-rule:nonzero;fill:#000;fill-opacity:1"/><path d="m29.996 16-3.992 4v2.996L30 19ZM20 16l-4 4v2.996L20 19Zm-10 0-4.004 4v2.996L10 19Zm-7.996-3 3.992 4v3l-3.992-4ZM12 13l4 4v3l-4-4Zm9.996 0 4.008 4v3l-4.008-4Zm8-3-3.992 4v3l3.992-4ZM20 10l-4 4v3l4-4Zm-10 0-4.004 4v3L10 13ZM2.004 7l3.988 3.996V14l-3.988-4ZM12 7l4 3.996V14l-4-4Zm9.996 0 4.008 3.996V14l-4.008-4Zm8-3-3.992 4v2.996L30 7ZM20 4l-4 4v2.996L20 7ZM10 4 5.996 8v2.996L10 7Zm0 0" style="stroke:none;fill-rule:nonzero;fill:#000;fill-opacity:1"/></svg>

<svg xmlns="http://www.w3.org/2000/svg" width="32" height="32"><path d="m2 25 4 4v3l-4-4Zm10 0 4 4v3l-4-4Zm10 0 4 4v3l-4-4Zm8-3-4 4v3l4-4Zm-10 0-4 4v3l4-4Zm-10 0-4 4v3l4-4Zm-8-3 4 4v3l-4-4Zm10 0 4 4v3l-4-4Zm10 0 4 4v3l-4-4Zm8-3-4 4v3l4-4Zm-10 0-4 4v3l4-4Zm-10 0-4 4v3l4-4Zm-8-3 4 4v3l-4-4Zm10 0 4 4v3l-4-4Zm10 0 4 4v3l-4-4Zm8-3-4 4v3l4-4Zm-10 0-4 4v3l4-4Zm-10 0-4 4v3l4-4ZM2 7l3.988 4v3L2 10Zm10 0 4 4v3l-4-4Zm10 0 4 4v3l-4-4Zm8-3-4 4v3l4-4ZM20 4l-4 4v3l4-4ZM10 4 6 8v3l4-4Zm0 0" style="stroke:none;fill-rule:nonzero;fill:#000;fill-opacity:1"/></svg>
